html/dist/img/svg/youtube.svg

<svg width="40" height="40" viewBox="0 0 40 40" fill="none" xmlns="http://www.w3.org/2000/svg">
<path d="M17.7304 22.9267L23.924 19.6411L17.7304 16.422V22.9267Z" fill="#7C7C7D"/>
<path d="M20 0C8.95441 0 0 8.95441 0 20C0 31.0456 8.95441 40 20 40C31.0456 40 40 31.0456 40 20C40 8.95441 31.0456 0 20 0ZM31.1669 24.6581C30.9004 26.3453 30.0848 27.2615 28.3696 27.4554C26.4528 27.672 22.1431 27.7717 20.2275 27.7717C18.2455 27.7717 14.2367 27.6886 12.2356 27.5219C10.5155 27.3787 9.34174 26.4179 9.10529 24.708C8.93332 23.4628 8.82219 21.9829 8.82219 19.6297C8.82219 17.0101 8.91669 15.9016 9.13855 14.7181C9.45531 13.0293 10.2616 12.2112 12.1021 12.021C14.0335 11.8211 15.8594 11.7213 19.9444 11.7213C21.9415 11.7213 26.2472 11.8247 28.2361 12.0044C29.9732 12.1613 30.9519 13.224 31.1665 14.9181C31.3161 16.1003 31.4495 17.7928 31.4495 19.6135C31.45 22.8099 31.1669 24.6581 31.1669 24.6581Z" fill="#7C7C7D"/>
</svg>

<svg width="40" height="40" viewBox="0 0 40 40" fill="none" xmlns="http://www.w3.org/2000/svg"><path d="M17.73 22.927l6.194-3.286-6.194-3.219v6.505z" fill="#7C7C7D"/><path d="M20 0C8.954 0 0 8.954 0 20s8.954 20 20 20 20-8.954 20-20S31.046 0 20 0zm11.167 24.658c-.267 1.687-1.082 2.604-2.797 2.797-1.917.217-6.227.317-8.143.317-1.982 0-5.99-.083-7.991-.25-1.72-.143-2.894-1.104-3.13-2.814-.173-1.245-.284-2.725-.284-5.078 0-2.62.095-3.728.317-4.912.316-1.689 1.123-2.507 2.963-2.697 1.931-.2 3.757-.3 7.842-.3 1.998 0 6.303.104 8.292.283 1.737.157 2.716 1.22 2.93 2.914.15 1.182.284 2.875.284 4.695 0 3.197-.283 5.045-.283 5.045z" fill="#7C7C7D"/></svg>
